X: 79
T: No_176_I_Am_Standing_Till_Daylight.krn
N: Derived from No_176_I_Am_Standing_Till_Daylight.krn
%%abc-version 2.0
%%abcx-abcm2ps-target-version 5.9.1 (29 Sep 2008)
%%abc-creator hum2abc beta
%%abcx-conversion-date 2019/03/15 08:29:13
%%humdrum-veritas 1854923635
%%humdrum-veritas-data 2438304529
%%linebreak <none>
%%barnumbers 0
L: 1/8
M: 2/4
%%staves {1 2}
V: 1 clef=treble
V: 2 clef=bass
K: D
[V:1] [K:clef=treble][M:2/4]F3F | 
[V:2] [K:clef=bass][M:2/4]G,,/!accent!G,, z/ G,,/!accent!G,, z/ | 
[V:1] F2ED | 
[V:2] z4 | 
[V:1] FF EE | 
[V:2] z4 | 
[V:1] {/F} DB,D2 | 
[V:2] z4 | 
[V:1] B,3/B,/B,2- | 
[V:2] z4 | 
[V:1] B,2F, z | 
[V:2] z4 | 
[V:1] E3/D/C2 | 
[V:2] z4 | 
[V:1] {/E} DB,D2 | 
[V:2] z4 | 
[V:1] [M:3/4]B,3C (B, z | 
[V:2] [M:3/4]z4z A, | 
[V:1] z6 | 
[V:2] F,3A, F,E, | 
[V:1] z6 | 
[V:2] D,6 | 
[V:1] z6 | 
[V:2] D,4z !wedge!D | 
[V:1] z6 | 
[V:2] B,3C B,A, | 
[V:1] z6 | 
[V:2] F,3E,/D,/ E,D, | 
[V:1] z6 | 
[V:2] B,,3/B,,/B,,4- | 
[V:1] z6 | 
[V:2] (B,,6 | 
[V:1] AA AAF2 ||  
[V:2] z6 ||  
[V:1] [M:2/4]F2D2 | 
[V:2] [M:2/4]z4 | 
[V:1] (F(D)D2) | 
[V:2] z4 | 
[V:1] D2B,2 | 
[V:2] z4 | 
[V:1] (DB,)B,2 | 
[V:2] z4 | 
[V:1] B,3B, | 
[V:2] z4 | 
[V:1] B,4 |]  
[V:2] z4 |]  



